!!!COM:	Bach, Johann Sebastian
!!!CDT:	1685/02/21/-1750/07/28/
!!!OTL@@DE:	Mitten wir im Leben sind
!!!SCT:	BWV 383
!!!PC#:	214
!!!AGN:	chorale
**kern	**kern	**kern	**kern
*ICvox	*ICvox	*ICvox	*ICvox
*Ibass	*Itenor	*Ialto	*Isoprn
*I"Bass	*I"Tenor	*I"Alto	*I"Soprano
*>[A,A,B]	*>[A,A,B]	*>[A,A,B]	*>[A,A,B]
*>norep[A,B]	*>norep[A,B]	*>norep[A,B]	*>norep[A,B]
*>A	*>A	*>A	*>A
*clefF4	*clefGv2	*clefG2	*clefG2
*k[]	*k[]	*k[]	*k[]
*a:	*a:	*a:	*a:
*M4/4	*M4/4	*M4/4	*M4/4
*met(c)	*met(c)	*met(c)	*met(c)
*MM100	*MM100	*MM100	*MM100
=1-	=1-	=1-	=1-
4E	4B	4e	4g
8EL	4B	4e	4g
8DJ	.	.	.
8CL	4c	4e	4a
8BB	.	.	.
8AA	4B	4e	4b
8GG#J	.	.	.
=2	=2	=2	=2
4.AA	4.A	8eL	4cc
.	.	16f#L	.
.	.	16g#JJ	.
.	.	4a	4cc
8C	8e	.	.
8DL	8fnXL	4a	2b
8BBJ	8dJ	.	.
4E	8BL	4g#	.
.	16eL	.	.
.	16dJJ	.	.
=3	=3	=3	=3
2AA;	2c;	2e;	2a;
8GL	4d	4gnX	4b
8FnXJ	.	.	.
4E	4e	4g	4cc
=4	=4	=4	=4
8DL	8fL	8aL	4dd
8EJ	8eJ	8gJ	.
4F	[4d	[4f	4a
8BBL	8dL]	8fL]	4g
8CJ	16cL	[8eJ	.
.	16B-JJ	.	.
4D	8AL	8eL]	4f
.	16BL	16dL	.
.	16AJJ	16cJJ	.
=5	=5	=5	=5
1E;	1G#;	1B;	1e;
=6:|!	=6:|!	=6:|!	=6:|!
*>B	*>B	*>B	*>B
4r	4ry	4ry	4r
8GXL	4GnX	4B	4d
8FJ	.	.	.
4E	4G	8cL	4e
.	.	8BJ	.
4A	8cL	4c	4f
.	8AJ	.	.
=7	=7	=7	=7
8GL	4B	8dL	4.g
8GG	.	[8eJ	.
8AA	8cL	8eL]	.
8BBJ	8GJ	[8dJ	8f
4C	[4G	8dL]	4e
.	.	[8cJ	.
4GG	8.GL]	8cL]	4d
.	.	8BJ	.
.	16FJk	.	.
=8	=8	=8	=8
2CC;	2E;	2G;	2c;
4r	4ry	4ry	4r
8EL	4G	4G	4c
8FJ	.	.	.
=9	=9	=9	=9
8EL	4G	[4c	4g
8D	.	.	.
8E	4c	8cL]	4g
8CJ	.	8eJ	.
4F	8cL	4.f	4a
.	8dJ	.	.
4GG#	4d	.	4b
.	.	8e	.
=10	=10	=10	=10
8AAL	8cL	8eL	4cc
8BB	8dJ	16aL	.
.	.	16g#JJ	.
8C	[4e	[4a	4cc
8DJ	.	.	.
2E	8eL]	8aL]	2b
.	8BJ	16g#L	.
.	.	16f#JJ	.
.	8eL	4g#	.
.	8dJ	.	.
=11	=11	=11	=11
2AA;	2c;	2e;	2a;
4E	4e	4g#	4b
8AL	4e	[4a	4cc
8GnXJ	.	.	.
=12	=12	=12	=12
8FL	[4d	8aL]	4dd
8EJ	.	8gnXJ	.
[4D	8dL]	4f	4a
.	8cJ	.	.
8DL]	4B-	4.e	4g
8C#J	.	.	.
8DL	4A	.	4f
8FJ	.	8d	.
=13	=13	=13	=13
2A;	2A;	2c#;	2e;
4r	4ry	4ry	4r
4FF	[4cnX	8fL	4a
.	.	8eJ	.
=14	=14	=14	=14
4GG	8cL]	4.d	4g
.	8BJ	.	.
4AA	4A	.	4e
.	.	8c	.
8DL	4A	[4d	4f
8C	.	.	.
8BB	8GL	4d]	8.gL
8GGJ	8BJ	.	.
.	.	.	16fJk
=15	=15	=15	=15
2AA;	2c;	2c;	2e;
4r	4ry	4ry	4r
4AA	4c	4e	4a
=16	=16	=16	=16
4BB	4B	[4d	4g
4C	4G	8dL]	4e
.	.	16cL	.
.	.	16BJJ	.
4D	8FL	4A	4f
.	8EJ	.	.
8BBL	8DL	8dL	4g
8GGJ	8GJ	8BJ	.
=17	=17	=17	=17
2C;	2G;	2c;	2e;
8AAL	4c	4e	4a
8CJ	.	.	.
8EL	4B	4e	4g
8DJ	.	.	.
=18	=18	=18	=18
8CL	4c	4e	4a
8BB	.	.	.
8AA	4B	4e	4b
8GG#J	.	.	.
4AA	4A	8eL	4cc
.	.	8fJ	.
4BB	4d	8gL	8bL
.	.	[8fJ	8aJ
=19	=19	=19	=19
4C	8GL	8fL]	4g
.	16cL	[8eJ	.
.	16BJJ	.	.
4D	8AL	8eL]	4f
.	16BL	16dL	.
.	16AJJ	16cJJ	.
4E;	4G#;	4B;	4e;
4G	4G	4B-	4d
=20	=20	=20	=20
8FL	4A	4c	2a
8E	.	.	.
8D	[4d	[4f	.
8CJ	.	.	.
8BBL	8dL]	8fL]	4g
8GG	8BJ	[8eJ	.
8AA	8cL	8eL]	4f
8BBJ	8GJ	8dJ	.
=21	=21	=21	=21
2C;	2G;	2c;	2e;
8CL	4c	4.e	4a
8DJ	.	.	.
4E	8cL	.	4g
.	8B-J	8d	.
=22	=22	=22	=22
8FL	8AL	4c	4a
8EJ	8GJ	.	.
4D	4F	4d	4b
4C	8GL	8e	8ccL
.	8eJ	4g	8bJ
4D	8AL	.	4a
.	16dL	8f#	.
.	16cJJ	.	.
=23	=23	=23	=23
2E;	2B;	2g;	2g;
8EL	4e	4g	4cc
8FnXJ	.	.	.
4G	8dL	4g	4b
.	8eJ	.	.
=24	=24	=24	=24
8DL	8fL	8aL	4dd
8EJ	8eJ	8gJ	.
[4F	8dL	8fL	4a
.	8cJ	8eJ	.
8FL]	8BL	8dL	4g
8EJ	8c#J	8eJ	.
8DL	8dL	8AL	4f
8FJ	8AJ	8dJ	.
=25	=25	=25	=25
2A;	2A;	2c#;	2e;
4r	4ry	4ry	4r
8FL	8AL	4d	4d
8EJ	8GJ	.	.
=26	=26	=26	=26
4D	8FL	4d	2a
.	8EJ	.	.
8AAL	4F	8cnXL	.
8BBJ	.	8dJ	.
8CL	8EL	[4e	4g
8C#J	8AJ	.	.
4D	8AL	8eL]	4f
.	16BL	16dL	.
.	16AJJ	16cJJ	.
=27	=27	=27	=27
1E;	1G#;	1B;	1e;
==	==	==	==
*-	*-	*-	*-
!!!hum2abc: -Q ''
!!!title: @{PC#}. @{OTL@@DE}
!!!YOR1: 371 vierstimmige Choralges&auml;nge von Johann Sebastian Bach, 
!!!YOR2: 4th ed. by Alfred D&ouml;rffel (Leipzig: Breitkopf und H&auml;rtel, 
!!!YOR2: c.1875). 178 pp. Plate "V.A.10".  reprint: J.S. Bach, 371 Four-Part 
!!!YOR4: Chorales (New York: Associated Music Publishers, Inc., c.1940).
!!!SMS: B&H, 4th ed, Alfred D&ouml;rffel, c.1875, plate V.A.10
!!!EED:  Craig Stuart Sapp
!!!EEV:  2009/05/22
